X: 1
T:Evensg\aardvalsen
C:anon.
O:Norway
A:Saltdal
R:Vals
Z:After K. H. Evensg\aard. Org. transcription: Rolf Monsen
M:3/4
L:1/8
K:D
A2|:f4ef|f3f gb|{f}a6|A4 fg|
{f}a6|g4a2|f6-|f2 z2 A2|
f4ef|g3f gb|{f}a6|A2 z2 fg|
a3ba2|g2f2e2|d6-|d2 z2 A2:|
|:f6|gf ed cd|e6-|e2 z2 ef|
g2ag fg|a4g2|f6-|f2 z2 A2|
f6|gf ed cd|B6-|B2 z2 B2|
A3c eg|f4e2|d6-|d2 z2 A2:|
|:Ad f3g|a6|b2a3f|g2 z2 A2|
Ace3f|g2(3gag fg|baa3g|f2 z2 A2|
Adf3g|a6|b2a3f|g4 z2|
AB cd ef|a4(3aba|g2f2e2|[1d2 z2 A2:|[2d4|]
